src/assets/duotone/Blur.svg

<svg width="24" height="24" viewBox="0 0 24 24"  xmlns="http://www.w3.org/2000/svg">
<path opacity="0.4" d="M12.6098 2.21C12.2498 1.93 11.7498 1.93 11.3898 2.21C9.48983 3.66 3.87979 8.39 3.90979 13.9C3.90979 18.36 7.53982 22 12.0098 22C16.4798 22 20.1098 18.37 20.1098 13.91C20.1198 8.48 14.4998 3.67 12.6098 2.21Z" />
<path d="M20.09 14.2C20.07 14.81 19.98 15.41 19.82 15.99L12.75 19.43V21.97C12.5 21.99 12.25 22 12 22C11.75 22 11.5 21.99 11.25 21.97V2.31C11.3 2.27 11.34 2.24 11.38 2.21C11.75 1.93 12.25 1.93 12.61 2.21C12.65 2.24 12.7 2.28 12.75 2.32V7.76L16.53 5.92C16.86 6.3 17.17 6.69 17.48 7.1C17.44 7.14 17.4 7.17 17.35 7.19L12.75 9.43V12.76L19.04 9.7C19.05 9.7 19.05 9.69 19.06 9.69C19.28 10.14 19.47 10.6 19.62 11.08L12.75 14.43V17.76L19.37 14.54L20.09 14.2Z" />
</svg>

<?xml version="1.0" encoding="UTF-8"?>
<svg width="24" height="24" viewBox="0 0 24 24" xmlns="http://www.w3.org/2000/svg">
 <path d="m12.61 2.21c-0.36-0.28-0.86-0.28-1.22 0-1.9 1.45-7.51 6.18-7.48 11.69 0 4.46 3.63 8.1 8.1 8.1 4.47 0 8.1-3.63 8.1-8.09 0.01-5.43-5.61-10.24-7.5-11.7z" opacity=".4"/>
 <path d="m20.09 14.2c-0.02 0.61-0.11 1.21-0.27 1.79l-7.07 3.44v2.54c-0.25 0.02-0.5 0.03-0.75 0.03s-0.5-0.01-0.75-0.03v-19.66c0.05-0.04 0.09-0.07 0.13-0.1 0.37-0.28 0.87-0.28 1.23 0 0.04 0.03 0.09 0.07 0.14 0.11v5.44l3.78-1.84c0.33 0.38 0.64 0.77 0.95 1.18-0.04 0.04-0.08 0.07-0.13 0.09l-4.6 2.24v3.33l6.29-3.06c0.01 0 0.01-0.01 0.02-0.01 0.22 0.45 0.41 0.91 0.56 1.39l-6.87 3.35v3.33l6.62-3.22 0.72-0.34z"/>
</svg>
